X:1
T:Title
%%score ( 1 2 ) { 3 | 4 }
L:1/8
Q:1/4=105
M:4/4
K:Ab
V:1 treble nm="Grand Piano, Soprano"
V:2 treble 
V:3 bass nm="Choir Pad, Sail On (Hushower)"
V:4 bass 
V:1
 E2 A2 A2 C2 | DE F2 F2 B,2 | CD E2- E/ z/ [Ed] [Ec]2 | [EB]2 [Ec]6 | E2 A2 A2 C2 | %5
w: By~R.~C.~Ward * * *|||||
 DE F2 F2 [Fd]2 | cB [EA]2- [EA][Ac] [Ac]2 | [EB]2 [EA]6 | cd e2- [Ae-]2 [Ae]2 | %9
w: ||||
 fe c2- [Ac-]2 [Ec]2 | .c2 z2 z4 | z2 B6 | E2 A2 A2 C2 | DE F2 F2 [Fd]2 | .c2 z2 z4 | %15
w: ||||||
 [EB]2 [EA]6- | [EA]2 z2 z4 |] %17
w: ||
V:2
 x8 | x8 | x8 | x8 | x8 | x8 | F2 z2 z4 | x8 | A2 A2 z4 | A2 A2 z4 | E-[Ed] [Ae]2- [Ae][Ae] [Ed]2 | %11
 [Ec]2 E2 E2 E2 | x8 | x8 | F-[FB] [EA]2- [EA][Ac] [Ac]2 | x8 | x8 |] %17
V:3
 E,2 A,2 A,2 C,2 | D,E, F,2 F,2 B,,2 | C,D, E,2- E,/ z/ B, A,2 | G,2 A,6 | E,2 A,2 A,2 C,2 | %5
 D,E, F,2 F,2 B,2 | =A,B,[K:treble] C2- CE E2 | D2 C6 | A,B, C6 | DC[K:bass] A,2 E,2 A,,2 | %10
 A,B,[K:treble] C2- CC B,2 | A,2[K:bass] G,2 G,2 G,B, | A,G, A,2 A,2 C,2 | D,E, F,2 F,2 B,2 | %14
 =A,B,[K:treble] C2- CE E2 | D2 C6- | C2 z2 z4 |] %17
V:4
 z8 | z8 | z4 z E, E,2 | E,2 A,,6 | z8 | z4 z2 B,,2 | C,D, E,2- E,E, E,2 | E,2 A,,6 | %8
 z2 A,2 E,2 A,,2 | A,2 z2 z4 | z2 A,2- A,A, G,2 | z2 E,2 E,2 E,D, | C,B,, A,,2 z4 | z4 z2 B,,2 | %14
 C,D, E,2- E,E, E,2 | E,2 A,,6- | A,,2 z2 z4 |] %17

